src/assets/outline/CloudFog.svg

<?xml version="1.0" encoding="UTF-8"?>
<svg width="24" height="24" viewBox="0 0 24 24" xmlns="http://www.w3.org/2000/svg">
 <path d="m4.2901 12.37c-0.31 0-0.59997-0.19-0.70997-0.5-1.01-2.82-0.54999-5.5299 1.26-7.4199 1.85-1.94 4.81-2.71 7.37-1.92 2.34 0.72 3.99 2.65 4.59 5.33 1.8 0.41 3.31 1.67 4.08 3.47 0.16 0.38-0.01 0.8201-0.39 0.9901-0.38 0.16-0.82-0.0101-0.99-0.3901-0.65-1.5-1.9-2.47-3.44-2.67-0.33-0.04-0.59-0.28999-0.65-0.61999-0.4-2.4-1.7-4.06-3.65-4.66-2.02-0.62-4.37-0.01001-5.84 1.52-1.43 1.49-1.76 3.58-0.94 5.88 0.14 0.39-0.05995 0.82-0.44995 0.96-0.07 0.01-0.16005 0.03-0.24005 0.03z"/>
 <path d="m14.54 9.68c-0.28 0-0.5399-0.14998-0.6699-0.41998-0.19-0.37-0.03-0.82001 0.34-1.01 0.63-0.31 1.3-0.47999 1.99-0.48999 0.43 0.02 0.76 0.31999 0.76 0.73999 0.01 0.41-0.3201 0.76001-0.7401 0.76001-0.47 0.01-0.9199 0.11999-1.3499 0.32999-0.11 0.07-0.2201 0.08999-0.3301 0.08999z"/>
 <path d="m20 15.78h-16c-0.41 0-0.75-0.34-0.75-0.75s0.34-0.75 0.75-0.75h16c0.41 0 0.75 0.34 0.75 0.75s-0.34 0.75-0.75 0.75z"/>
 <path d="m18 18.78h-12c-0.41 0-0.75-0.34-0.75-0.75s0.34-0.75 0.75-0.75h12c0.41 0 0.75 0.34 0.75 0.75s-0.34 0.75-0.75 0.75z"/>
 <path d="m15 21.78h-6c-0.41 0-0.75-0.34-0.75-0.75s0.34-0.75 0.75-0.75h6c0.41 0 0.75 0.34 0.75 0.75s-0.34 0.75-0.75 0.75z"/>
</svg>

<svg width="24" height="24" viewBox="0 0 24 24"  xmlns="http://www.w3.org/2000/svg">
<path d="M4.29008 12.3698C3.98008 12.3698 3.69011 12.1798 3.58011 11.8698C2.57011 9.04984 3.03012 6.33986 4.84012 4.44986C6.69012 2.50986 9.65012 1.73984 12.2101 2.52984C14.5501 3.24984 16.2001 5.17983 16.8001 7.85983C18.6001 8.26983 20.1101 9.52983 20.8801 11.3298C21.0401 11.7098 20.8701 12.1499 20.4901 12.3199C20.1101 12.4799 19.6701 12.3098 19.5001 11.9298C18.8501 10.4298 17.6001 9.45985 16.0601 9.25985C15.7301 9.21985 15.4701 8.96986 15.4101 8.63986C15.0101 6.23986 13.7101 4.57985 11.7601 3.97985C9.74011 3.35985 7.39008 3.96984 5.92008 5.49984C4.49008 6.98984 4.16008 9.07985 4.98008 11.3798C5.12008 11.7698 4.92013 12.1998 4.53013 12.3398C4.46013 12.3498 4.37008 12.3698 4.29008 12.3698Z" />
<path d="M14.5399 9.67999C14.2599 9.67999 14 9.53001 13.87 9.26001C13.68 8.89001 13.84 8.44 14.21 8.25C14.84 7.94 15.51 7.77001 16.2 7.76001C16.63 7.78001 16.96 8.08 16.96 8.5C16.97 8.91 16.6399 9.26001 16.2199 9.26001C15.7499 9.27001 15.3 9.38 14.87 9.59C14.76 9.66 14.6499 9.67999 14.5399 9.67999Z" />
<path d="M20 15.78H4C3.59 15.78 3.25 15.44 3.25 15.03C3.25 14.62 3.59 14.28 4 14.28H20C20.41 14.28 20.75 14.62 20.75 15.03C20.75 15.44 20.41 15.78 20 15.78Z" />
<path d="M18 18.78H6C5.59 18.78 5.25 18.44 5.25 18.03C5.25 17.62 5.59 17.28 6 17.28H18C18.41 17.28 18.75 17.62 18.75 18.03C18.75 18.44 18.41 18.78 18 18.78Z" />
<path d="M15 21.78H9C8.59 21.78 8.25 21.44 8.25 21.03C8.25 20.62 8.59 20.28 9 20.28H15C15.41 20.28 15.75 20.62 15.75 21.03C15.75 21.44 15.41 21.78 15 21.78Z" />
</svg>
